icons/clipboard-cross-outline.svg

<svg xmlns="http://www.w3.org/2000/svg" width="24" height="24" viewBox="0 0 24 24">
  <path d="M16,1 C16.5128358,1 16.9355072,1.38604019 16.9932723,1.88337887 L17,2 L17,3 L18,3 C19.5976809,3 20.9036609,4.24891996 20.9949073,5.82372721 L21,6 L21,20 C21,21.5976809 19.75108,22.9036609 18.1762728,22.9949073 L18,23 L6,23 C4.40231912,23 3.09633912,21.75108 3.00509269,20.1762728 L3,20 L3,6 C3,4.40231912 4.24891996,3.09633912 5.82372721,3.00509269 L6,3 L7,3 L7,2 C7,1.48716416 7.38604019,1.06449284 7.88337887,1.00672773 L8,1 L16,1 Z M7,5 L6,5 C5.48716416,5 5.06449284,5.38604019 5.00672773,5.88337887 L5,6 L5,20 C5,20.5128358 5.38604019,20.9355072 5.88337887,20.9932723 L6,21 L18,21 C18.5128358,21 18.9355072,20.6139598 18.9932723,20.1166211 L19,20 L19,6 C19,5.44771525 18.5522847,5 18,5 L17,5 L17,6 C17,6.51283584 16.6139598,6.93550716 16.1166211,6.99327227 L16,7 L8,7 C7.48716416,7 7.06449284,6.61395981 7.00672773,6.11662113 L7,6 L7,5 Z M10.6128994,11.2097046 L10.7071068,11.2928932 L12,12.585 L13.2928932,11.2928932 C13.6834175,10.9023689 14.3165825,10.9023689 14.7071068,11.2928932 C15.0675907,11.6533772 15.0953203,12.2206082 14.7902954,12.6128994 L14.7071068,12.7071068 L13.415,14 L14.7071068,15.2928932 C15.0976311,15.6834175 15.0976311,16.3165825 14.7071068,16.7071068 C14.3466228,17.0675907 13.7793918,17.0953203 13.3871006,16.7902954 L13.2928932,16.7071068 L12,15.415 L10.7071068,16.7071068 C10.3165825,17.0976311 9.68341751,17.0976311 9.29289322,16.7071068 C8.93240926,16.3466228 8.90467972,15.7793918 9.20970461,15.3871006 L9.29289322,15.2928932 L10.585,14 L9.29289322,12.7071068 C8.90236893,12.3165825 8.90236893,11.6834175 9.29289322,11.2928932 C9.65337718,10.9324093 10.2206082,10.9046797 10.6128994,11.2097046 Z M15,3 L9,3 L9,5 L15,5 L15,3 Z"/>
</svg>

<svg xmlns="http://www.w3.org/2000/svg" viewBox="0 0 24 24">
  <path d="M16 1a1 1 0 0 1 1 .88V3h1a3 3 0 0 1 3 2.82V20a3 3 0 0 1-2.82 3H6a3 3 0 0 1-3-2.82V6a3 3 0 0 1 2.82-3H7V2a1 1 0 0 1 .88-1H16zM7 5H6a1 1 0 0 0-1 .88V20a1 1 0 0 0 .88 1H18a1 1 0 0 0 1-.88V6a1 1 0 0 0-1-1h-1v1a1 1 0 0 1-.88 1H8a1 1 0 0 1-1-.88V5zm3.61 6.21.1.08L12 12.6l1.3-1.3a1 1 0 0 1 1.49 1.32l-.08.1L13.4 14l1.3 1.3a1 1 0 0 1-1.32 1.49l-.1-.08L12 15.4l-1.3 1.3a1 1 0 0 1-1.49-1.32l.08-.1L10.6 14l-1.3-1.3a1 1 0 0 1 1.32-1.49zM15 3H9v2h6V3z"/>
</svg>
